X: 59
T:Kilcoon
R:Reel
D:Inishkeeragh- Brenda McCann
Z:Alf 
M:4/4
L:1/8
K:G
G,2B,D GBdB|c2cd cBAB|GEDE GABG|AcBA GEDC|
B,G,B,D GBdB|cdef g3a|bgaf gedB|[1 GEDE GEDB,:|[2 GEDE G2Bc|
dgg/2g/2g dgeg|dgg/2g/2g gabg|eaa/2a/2a abag|eaa/2a/2g edBc|
dgg/2g/2g dgbg|agef g2ga|bgaf gedB|[1 AGED G2Bc:|[2 GEDE GEDB,|
